packages/assets/static/images/icons/bold/accessible-trails--bold.svg

<svg width="24" height="24" viewBox="0 0 24 24" xmlns="http://www.w3.org/2000/svg">
<path d="M20.5422 11.3337C21.9887 11.3337 23.1653 10.1571 23.1653 8.71059C23.1653 7.26402 21.9887 6.08746 20.5422 6.08746C19.0956 6.08746 17.919 7.26402 17.919 8.71059C17.919 10.1571 19.0956 11.3337 20.5422 11.3337ZM20.5422 7.58746C21.1619 7.58746 21.6653 8.09184 21.6653 8.71059C21.6653 9.32934 21.1609 9.83371 20.5422 9.83371C19.9234 9.83371 19.419 9.32934 19.419 8.71059C19.419 8.09184 19.9234 7.58746 20.5422 7.58746Z"/>
<path d="M19.1059 17.5137C18.6915 17.5137 18.3559 17.8493 18.3559 18.2637C18.3559 20.2606 16.7312 21.8843 14.7353 21.8843C12.7394 21.8843 11.1147 20.2596 11.1147 18.2637C11.1147 16.2678 12.7394 14.6431 14.7353 14.6431C15.1497 14.6431 15.4853 14.3075 15.4853 13.8931C15.4853 13.4787 15.1497 13.1431 14.7353 13.1431C12.73 13.1431 10.9919 14.3018 10.1519 15.9846C10.015 15.8037 9.79842 15.6865 9.55467 15.6865H2.75499L5.71749 9.2459C5.82436 9.0134 5.80561 8.7434 5.6678 8.52777C5.52999 8.31215 5.29186 8.18277 5.03592 8.18277H3.95499L7.50155 2.74059L11.0481 8.18277H10.5465C10.1322 8.18277 9.79655 8.5184 9.79655 8.93277C9.79655 9.34715 10.1322 9.68277 10.5465 9.68277H12.4319C12.7075 9.68277 12.9597 9.53184 13.0909 9.28996C13.2222 9.04809 13.21 8.75371 13.06 8.52309L8.12967 0.956523C7.99092 0.743711 7.75467 0.616211 7.50155 0.616211C7.24842 0.616211 7.01124 0.744648 6.87342 0.956523L1.94217 8.52309C1.79217 8.75371 1.77999 9.04809 1.91124 9.28996C2.04249 9.53184 2.29561 9.68277 2.5703 9.68277H3.86499L0.903423 16.1225C0.796548 16.355 0.815298 16.625 0.953111 16.8406C1.09092 17.0562 1.32905 17.1856 1.58499 17.1856H6.5828V20.2034C6.5828 20.6178 6.91842 20.9534 7.3328 20.9534C7.74717 20.9534 8.0828 20.6178 8.0828 20.2034V17.1856H9.55467C9.61655 17.1856 9.67749 17.1771 9.73467 17.1631C9.65686 17.5175 9.61467 17.8859 9.61467 18.2637C9.61467 21.0875 11.9115 23.3843 14.7353 23.3843C17.559 23.3843 19.8559 21.0875 19.8559 18.2637C19.8559 17.8493 19.5203 17.5137 19.1059 17.5137Z"/>
<path d="M22.2269 15.0153H17.904L19.1312 12.8796C19.33 12.5346 19.224 12.094 18.8903 11.8775C16.0853 10.0531 12.4675 10.2575 9.88749 12.3875C9.5678 12.6509 9.5228 13.1234 9.78623 13.4431C10.0497 13.7628 10.5222 13.8078 10.8419 13.5443C12.73 11.9862 15.31 11.7106 17.4569 12.7831L15.9569 15.3921C15.8237 15.6246 15.8237 15.9096 15.9578 16.1412C16.0919 16.3728 16.3394 16.5153 16.6065 16.5153H21.3109L20.2412 21.8628C20.1597 22.2687 20.4231 22.6643 20.83 22.745C20.8797 22.7553 20.9294 22.76 20.9781 22.76C21.3278 22.76 21.6419 22.5134 21.7131 22.1571L22.9628 15.9125C23.0069 15.6921 22.9497 15.4634 22.8072 15.29C22.6647 15.1165 22.4519 15.0153 22.2269 15.0153Z"/>
</svg>

<svg viewBox="0 0 24 24" xmlns="http://www.w3.org/2000/svg" aria-hidden="true" fill="currentColor"><path d="M20.542 11.334a2.626 2.626 0 0 0 2.623-2.623 2.626 2.626 0 0 0-2.623-2.624 2.626 2.626 0 0 0-2.623 2.624 2.626 2.626 0 0 0 2.623 2.623m0-3.747c.62 0 1.123.505 1.123 1.124 0 .618-.504 1.123-1.123 1.123A1.125 1.125 0 0 1 19.42 8.71c0-.62.504-1.124 1.123-1.124m-1.436 9.927a.75.75 0 0 0-.75.75 3.625 3.625 0 0 1-3.62 3.62 3.625 3.625 0 0 1-3.621-3.62 3.625 3.625 0 0 1 3.62-3.62.75.75 0 1 0 0-1.5 5.12 5.12 0 0 0-4.583 2.84.75.75 0 0 0-.597-.297h-6.8l2.962-6.441a.75.75 0 0 0-.681-1.063H3.955L7.502 2.74l3.546 5.442h-.502a.75.75 0 1 0 0 1.5h1.886a.75.75 0 0 0 .628-1.16L8.13.957a.75.75 0 0 0-1.257 0l-4.93 7.566a.75.75 0 0 0 .627 1.16h1.295l-2.962 6.44a.75.75 0 0 0 .682 1.063h4.998v3.017a.75.75 0 1 0 1.5 0v-3.017h1.472a.8.8 0 0 0 .18-.023q-.118.533-.12 1.1a5.126 5.126 0 0 0 5.12 5.121 5.126 5.126 0 0 0 5.12-5.12.75.75 0 0 0-.75-.75"/><path d="M22.227 15.015h-4.323l1.227-2.135a.75.75 0 0 0-.24-1.003 7.59 7.59 0 0 0-9.004.51.75.75 0 1 0 .955 1.157 6.09 6.09 0 0 1 6.615-.76l-1.5 2.608a.75.75 0 0 0 .65 1.123h4.704l-1.07 5.348a.75.75 0 0 0 .737.897c.35 0 .664-.247.735-.603l1.25-6.244a.75.75 0 0 0-.736-.898"/></svg>
